static/images/user-logos/49nord.svg

<svg height="849" viewBox="0 0 833 849" width="833" xmlns="http://www.w3.org/2000/svg"><g fill="none" fill-rule="evenodd" transform="translate(39 59)"><g fill="#063045"><path d="m612.369105 114.413562-35.685901 31.02128c-54.33431-49.3558455-126.496094-79.434842-205.683204-79.434842-168.999133 0-306 137.000867-306 306s137.000867 306 306 306 306-137.000867 306-306c0-67.124208-21.612883-129.200456-58.259282-179.649378l35.591207-30.938964c43.766481 58.788667 69.668075 131.663684 69.668075 210.588342 0 194.956517-158.043483 353-353 353s-353-158.043483-353-353 158.043483-353 353-353c93.353205 0 178.242663 36.2376102 241.369105 95.413562z"/><path d="m139 466.537314 111.584767-240.537314h56.864883l-89.614244 192.606175h87.029477v-60.030874h52.135117v168.424699h-52.135117v-60.462686z" fill-rule="nonzero"/><path d="m437.79471 526 68.019342-100.993037c-4.735523 1.726223-10.762554 2.589335-17.220086 2.589335-24.538624 0-46.924737-9.494227-67.59781-28.051124-20.664104-18.988453-30.996156-43.596122-30.996156-73.364478 0-29.354782 10.762554-54.385015 31.857161-75.108682 21.094606-20.714676 46.924736-31.072014 76.638355-31.072014 30.996156 0 56.826286 10.357338 77.499359 30.640458 20.664104 20.292111 31.005125 45.322345 31.005125 74.668136 0 15.967563-3.87452 31.512561-11.202025 46.617012-7.318537 14.681886-18.942096 34.101895-35.301178 58.691582l-62.862286 95.382812zm117.105559-200.691406c0-15.536007-5.596529-28.914235-16.789585-39.703129-10.762554-10.788894-24.108121-16.399119-39.615168-16.399119-15.067576 0-28.413144 5.610225-39.615169 16.399119-10.762554 10.788894-16.359082 24.167122-16.359082 39.703129 0 15.544998 5.596528 28.923226 16.359082 40.143676 11.193057 10.788894 24.538624 16.399118 39.615169 16.399118 34.01864 0 56.404753-24.167122 56.404753-56.542794z" fill-rule="nonzero"/></g><path d="m0 0h746v746h-746z"/></g></svg>

<?xml version="1.0" encoding="UTF-8"?>
<svg width="833px" height="849px" viewBox="0 0 833 849" version="1.1" xmlns="http://www.w3.org/2000/svg" xmlns:xlink="http://www.w3.org/1999/xlink">
    <!-- Generator: Sketch 48.2 (47327) - http://www.bohemiancoding.com/sketch -->
    <title>logo-blue</title>
    <desc>Created with Sketch.</desc>
    <defs></defs>
    <g id="Page-1" stroke="none" stroke-width="1" fill="none" fill-rule="evenodd">
        <g id="logo-blue">
            <g id="LOGO-1" transform="translate(39.000000, 59.000000)">
                <path d="M612.369105,114.413562 L576.683204,145.434842 C522.348894,96.0789965 450.18711,66 371,66 C202.000867,66 65,203.000867 65,372 C65,540.999133 202.000867,678 371,678 C539.999133,678 677,540.999133 677,372 C677,304.875792 655.387117,242.799544 618.740718,192.350622 L654.331925,161.411658 C698.098406,220.200325 724,293.075342 724,372 C724,566.956517 565.956517,725 371,725 C176.043483,725 18,566.956517 18,372 C18,177.043483 176.043483,19 371,19 C464.353205,19 549.242663,55.2376102 612.369105,114.413562 Z" id="Combined-Shape" fill="#063045"></path>
                <polygon id="Shape-Copy-2" fill="#063045" fill-rule="nonzero" points="139 466.537314 250.584767 226 307.44965 226 217.835406 418.606175 304.864883 418.606175 304.864883 358.575301 357 358.575301 357 527 304.864883 527 304.864883 466.537314"></polygon>
                <path d="M437.79471,526 L505.814052,425.006963 C501.078529,426.733186 495.051498,427.596298 488.593966,427.596298 C464.055342,427.596298 441.669229,418.102071 420.996156,399.545174 C400.332052,380.556721 390,355.949052 390,326.180696 C390,296.825914 400.762554,271.795681 421.857161,251.072014 C442.951767,230.357338 468.781897,220 498.495516,220 C529.491672,220 555.321802,230.357338 575.994875,250.640458 C596.658979,270.932569 607,295.962803 607,325.308594 C607,341.276157 603.12548,356.821155 595.797975,371.925606 C588.479438,386.607492 576.855879,406.027501 560.496797,430.617188 L497.634511,526 L437.79471,526 Z M554.900269,325.308594 C554.900269,309.772587 549.30374,296.394359 538.110684,285.605465 C527.34813,274.816571 514.002563,269.206346 498.495516,269.206346 C483.42794,269.206346 470.082372,274.816571 458.880347,285.605465 C448.117793,296.394359 442.521265,309.772587 442.521265,325.308594 C442.521265,340.853592 448.117793,354.23182 458.880347,365.45227 C470.073404,376.241164 483.418971,381.851388 498.495516,381.851388 C532.514156,381.851388 554.900269,357.684266 554.900269,325.308594 Z" id="Shape-Copy" fill="#063045" fill-rule="nonzero"></path>
                <rect id="Rectangle" x="0" y="0" width="746" height="746"></rect>
            </g>
        </g>
    </g>
</svg>
